ligands/haptic/eta8-cyclooctyl.svg

<svg height="47" viewBox="0 0 79 47" width="79" xmlns="http://www.w3.org/2000/svg"><g transform="matrix(.05 0 0 .05 -182 -274)"><path d="m4122.07 5556.96-3.63-19.96 603.15-6.1-3.18 20.03z"/><path d="m4133.42 5628.82-.2-20 575.2-5.81.2 20z"/><path d="m3718.65 5704-20-14 419.79-153 3.63 19.96z"/><path d="m3718.65 5895.02-20 14.49v-219.51l20 14z"/><path d="m3768.65 5866.74h-20v-134.75h20z"/><path d="m4245.92 6004.54-157.26 80-390.01-175.03 20-14.49z"/><path d="m4656.28 6004.54 142 80h-709.62l157.26-80z"/><path d="m4726.94 5932.58v20h-565.63v-20z"/><path d="m5146.55 5886.71 20 13.93-368.27 183.9-142-80z"/><path d="m5146.55 5695.6 20-14.35v219.39l-20-13.93z"/><path d="m5096.55 5724.31h20v135.22h-20z"/><path d="m4718.41 5550.93 3.18-20.03 444.96 150.35-20 14.35z"/><path d="m4430 6380h-20v-54.55h20z"/><path d="m4430 6270.91h-20v-54.55h20z"/><path d="m4430 6161.82h-20v-52.28h20z"/><path d="m4430 5834.55h-20v-54.55h20z"/></g></svg>

<svg xmlns="http://www.w3.org/2000/svg" xmlns:xlink="http://www.w3.org/1999/xlink" width="79" height="47" version="1.1" viewBox="0 0 79 47" style="background-color:#ffffff00"><path fill="#000" stroke="none" d="M 4122.07,5556.96 L 4118.44,5537 L 4721.59,5530.9 L 4718.41,5550.93 L 4122.07,5556.96 Z" transform="matrix(0.05 0 0 0.05 -182 -274)"/><path fill="#000" stroke="none" d="M 4133.42,5628.82 L 4133.22,5608.82 L 4708.42,5603.01 L 4708.62,5623.01 L 4133.42,5628.82 Z" transform="matrix(0.05 0 0 0.05 -182 -274)"/><path fill="#000" stroke="none" d="M 3718.65,5704 L 3698.65,5690 L 4118.44,5537 L 4122.07,5556.96 L 3718.65,5704 Z" transform="matrix(0.05 0 0 0.05 -182 -274)"/><path fill="#000" stroke="none" d="M 3718.65,5895.02 L 3698.65,5909.51 L 3698.65,5690 L 3718.65,5704 L 3718.65,5895.02 Z" transform="matrix(0.05 0 0 0.05 -182 -274)"/><path fill="#000" stroke="none" d="M 3768.65,5866.74 L 3748.65,5866.74 L 3748.65,5731.99 L 3768.65,5731.99 L 3768.65,5866.74 Z" transform="matrix(0.05 0 0 0.05 -182 -274)"/><path fill="#000" stroke="none" d="M 4245.92,6004.54 L 4088.66,6084.54 L 3698.65,5909.51 L 3718.65,5895.02 L 4245.92,6004.54 Z" transform="matrix(0.05 0 0 0.05 -182 -274)"/><path fill="#000" stroke="none" d="M 4656.28,6004.54 L 4798.28,6084.54 L 4088.66,6084.54 L 4245.92,6004.54 L 4656.28,6004.54 Z" transform="matrix(0.05 0 0 0.05 -182 -274)"/><path fill="#000" stroke="none" d="M 4726.94,5932.58 L 4726.94,5952.58 L 4161.31,5952.58 L 4161.31,5932.58 L 4726.94,5932.58 Z" transform="matrix(0.05 0 0 0.05 -182 -274)"/><path fill="#000" stroke="none" d="M 5146.55,5886.71 L 5166.55,5900.64 L 4798.28,6084.54 L 4656.28,6004.54 L 5146.55,5886.71 Z" transform="matrix(0.05 0 0 0.05 -182 -274)"/><path fill="#000" stroke="none" d="M 5146.55,5695.6 L 5166.55,5681.25 L 5166.55,5900.64 L 5146.55,5886.71 L 5146.55,5695.6 Z" transform="matrix(0.05 0 0 0.05 -182 -274)"/><path fill="#000" stroke="none" d="M 5096.55,5724.31 L 5116.55,5724.31 L 5116.55,5859.53 L 5096.55,5859.53 L 5096.55,5724.31 Z" transform="matrix(0.05 0 0 0.05 -182 -274)"/><path fill="#000" stroke="none" d="M 4718.41,5550.93 L 4721.59,5530.9 L 5166.55,5681.25 L 5146.55,5695.6 L 4718.41,5550.93 Z" transform="matrix(0.05 0 0 0.05 -182 -274)"/><path fill="#000" stroke="none" d="M 4430,6380 L 4410,6380 L 4410,6325.45 L 4430,6325.45 L 4430,6380 L 4430,6380 Z" transform="matrix(0.05 0 0 0.05 -182 -274)"/><path fill="#000" stroke="none" d="M 4430,6270.91 L 4410,6270.91 L 4410,6216.36 L 4430,6216.36 L 4430,6270.91 L 4430,6270.91 Z" transform="matrix(0.05 0 0 0.05 -182 -274)"/><path fill="#000" stroke="none" d="M 4430,6161.82 L 4410,6161.82 L 4410,6109.54 L 4430,6109.54 L 4430,6161.82 L 4430,6161.82 Z" transform="matrix(0.05 0 0 0.05 -182 -274)"/><path fill="#000" stroke="none" d="M 4430,5834.55 L 4410,5834.55 L 4410,5780 L 4430,5780 L 4430,5834.55 L 4430,5834.55 Z" transform="matrix(0.05 0 0 0.05 -182 -274)"/></svg>
